svg/UnitedNations-Flags/flag-gd.svg

<?xml version="1.0" encoding="UTF-8" standalone="no"?>
<!-- Created with Inkscape (http://www.inkscape.org/) --><svg height="256" id="svg1022" inkscape:output_extension="org.inkscape.output.svg.inkscape" inkscape:version="0.46" sodipodi:docname="Flag_of_Grenada.svg" sodipodi:version="0.32" version="1.0" width="256" xmlns="http://www.w3.org/2000/svg" xmlns:cc="http://creativecommons.org/ns#" xmlns:dc="http://purl.org/dc/elements/1.1/" xmlns:inkscape="http://www.inkscape.org/namespaces/inkscape" xmlns:rdf="http://www.w3.org/1999/02/22-rdf-syntax-ns#" xmlns:sodipodi="http://sodipodi.sourceforge.net/DTD/sodipodi-0.dtd" xmlns:svg="http://www.w3.org/2000/svg" xmlns:xlink="http://www.w3.org/1999/xlink">
  <metadata>
    <rdf:RDF xmlns:cc="http://web.resource.org/cc/" xmlns:dc="http://purl.org/dc/elements/1.1/" xmlns:rdf="http://www.w3.org/1999/02/22-rdf-syntax-ns#">
      <cc:Work rdf:about="">
        <dc:title></dc:title>
        <dc:description></dc:description>
        <dc:subject>
          <rdf:Bag>
            <rdf:li>unsorted</rdf:li>
          </rdf:Bag>
        </dc:subject>
        <dc:publisher>
          <cc:Agent rdf:about="http://www.openclipart.org/">
            <dc:title>Open Clip Art Library, Source: Wikimedia Commons, Source: Wikimedia Commons, Source: Wikimedia Commons, Source: Wikimedia Commons</dc:title>
          </cc:Agent>
        </dc:publisher>
        <dc:creator>
          <cc:Agent>
            <dc:title></dc:title>
          </cc:Agent>
        </dc:creator>
        <dc:rights>
          <cc:Agent>
            <dc:title></dc:title>
          </cc:Agent>
        </dc:rights>
        <dc:date></dc:date>
        <dc:format>image/svg+xml</dc:format>
        <dc:type rdf:resource="http://purl.org/dc/dcmitype/StillImage"/>
        <cc:license rdf:resource="http://en.wikipedia.org/wiki/Public_domain"/>
        <dc:language>en</dc:language>
      </cc:Work>
    </rdf:RDF>
  </metadata>
  <sodipodi:namedview bordercolor="#666666" borderopacity="1.0" gridtolerance="10.0" guidetolerance="10.0" id="base" inkscape:current-layer="svg1022" inkscape:cx="250" inkscape:cy="150" inkscape:pageopacity="0.0" inkscape:pageshadow="2" inkscape:window-height="690" inkscape:window-width="887" inkscape:window-x="0" inkscape:window-y="249" inkscape:zoom="1.118" objecttolerance="10.0" pagecolor="#ffffff" showgrid="false"/>
  <defs id="defs1024">
    <inkscape:perspective id="perspective2543" inkscape:persp3d-origin="250 : 100 : 1" inkscape:vp_x="0 : 150 : 1" inkscape:vp_y="0 : 1000 : 0" inkscape:vp_z="500 : 150 : 1" sodipodi:type="inkscape:persp3d"/>
  </defs>
  <rect height="153.60001" id="rect1031" style="fill:#ce1126" width="256" x="0" y="51.400002"/>
  <rect height="110.592" id="rect2276" style="fill:#007a5e" width="212.992" x="21.504" y="72.904015"/>
  <use height="300" id="use2407" transform="matrix(1,0,0,-1,0,256.40001)" width="500" x="0" xlink:href="#path3519" y="0"/>
  <path d="M 21.504,183.496 L 128,128.2 L 234.496,183.496 L 21.504,183.496 L 21.504,183.496 z" id="path3519" style="fill:#fcd116"/>
  <path d="M 146.432,128.2 C 146.432,138.37971 138.17971,146.632 128,146.632 C 117.82029,146.632 109.568,138.37971 109.568,128.2 C 109.568,118.02029 117.82029,109.768 128,109.768 C 138.17971,109.768 146.432,118.02029 146.432,128.2 L 146.432,128.2 z" id="path2394" style="fill:#ce1126"/>
  <path d="M 111.93088,122.97972 L 124.20769,122.97972 L 128,111.30401 L 131.79231,122.97972 L 144.06912,122.97972 L 134.1384,130.1947 L 137.93072,141.87041 L 128,134.65544 L 118.06928,141.87041 L 121.8616,130.1947 L 111.93088,122.97972 z" id="path2203" style="fill:#fcd116"/>
  <use height="300" id="use2413" transform="translate(-51.2,3.8540319e-6)" width="500" x="0" xlink:href="#use2411" y="0"/>
  <use height="300" id="use2411" transform="translate(-51.2,3.8540319e-6)" width="500" x="0" xlink:href="#use2409" y="0"/>
  <use height="300" id="use2409" transform="translate(102.4,-132.09599)" width="500" x="0" xlink:href="#path6678" y="0"/>
  <path d="M 67.30496,191.16383 L 74.559171,191.16383 L 76.8,184.26402 L 79.040829,191.16383 L 86.29504,191.16383 L 80.427105,195.42756 L 82.667935,202.32738 L 76.8,198.06365 L 70.932065,202.32738 L 73.172895,195.42756 L 67.30496,191.16383 z" id="path6678" style="fill:#fcd116"/>
  <use height="300" id="use2417" transform="translate(-51.2,3.8540319e-6)" width="500" x="0" xlink:href="#use2415" y="0"/>
  <use height="300" id="use2415" transform="translate(102.4,132.09599)" width="500" x="0" xlink:href="#use2413" y="0"/>
  <path d="M 34.687255,128.40768 C 36.993364,132.704 41.479221,137.3794 45.396451,139.02211 C 45.459632,134.66261 43.911696,129.07108 41.795129,124.61681 L 34.687255,128.40768 z" id="path7321" style="fill:#ce1126"/>
  <path d="M 30.777463,113.67464 C 34.120016,120.6441 22.107431,137.26536 42.121277,141.1638 C 39.652311,137.79517 38.060786,132.23293 38.662849,127.7675 C 42.861462,129.36801 47.279432,134.03954 49.065091,137.61429 C 54.302771,118.59332 35.630305,119.75341 30.777463,113.67464 z" id="path7320" style="fill:#fcd116"/>
</svg>

<svg xmlns="http://www.w3.org/2000/svg" xmlns:xlink="http://www.w3.org/1999/xlink" viewBox="0 0 256 256"><path fill="#ce1126" d="m0 51.4h256v153.6h-256z"/><path fill="#007a5e" d="m21.504 72.904h212.99v110.59h-212.99z"/><use height="300" transform="matrix(1 0 0-1 0 256.4)" width="500" xlink:href="#0"/><path d="m21.504 183.5l106.5-55.3 106.5 55.3h-212.99" id="0" fill="#fcd116"/><path d="m146.43 128.2c0 10.18-8.252 18.432-18.432 18.432-10.18 0-18.432-8.252-18.432-18.432 0-10.18 8.252-18.432 18.432-18.432 10.18 0 18.432 8.252 18.432 18.432" fill="#ce1126"/><path d="m111.93 122.98h12.277l3.792-11.676 3.792 11.676h12.277l-9.931 7.215 3.792 11.676-9.931-7.215-9.931 7.215 3.792-11.676-9.931-7.215" fill="#fcd116"/><use height="300" id="1" transform="translate(-51.2)" width="500" xlink:href="#2"/><use height="300" id="2" transform="translate(-51.2)" width="500" xlink:href="#3"/><use height="300" id="3" transform="translate(102.4-132.1)" width="500" xlink:href="#4"/><path d="m67.3 191.16h7.254l2.241-6.9 2.241 6.9h7.254l-5.868 4.264 2.241 6.9-5.868-4.264-5.868 4.264 2.241-6.9-5.868-4.264" id="4" fill="#fcd116"/><use height="300" transform="translate(-51.2)" width="500" xlink:href="#5"/><use height="300" id="5" transform="translate(102.4 132.1)" width="500" xlink:href="#1"/><path d="m34.687 128.41c2.306 4.296 6.792 8.972 10.709 10.614.063-4.359-1.485-9.951-3.601-14.405l-7.108 3.791" fill="#ce1126"/><path d="m30.777 113.67c3.343 6.969-8.67 23.591 11.344 27.489-2.469-3.369-4.06-8.931-3.458-13.396 4.199 1.601 8.617 6.272 10.402 9.847 5.238-19.02-13.435-17.861-18.288-23.94" fill="#fcd116"/></svg>
